X: 1558
T: Cloone Hornpipe, The
R:hornpipe
N:"Collected by Early"
B:O'Neill's 1558
Z:Transcribed by Michael Hogan
Z:Proofread by Frank Nordberg
M:2/4
L:1/16
Q:80
K:G
B>c | d>de>d B2c>A | "~"G>GA>F G2B>c | d>gf>g e>dc>d | e>cA>F G>FE>D |
d>de>d B2c>A | "~"G>GA>F G2d>c | (3BdB G>B (3AcA F>A | G2G>F G2 :|
|:(B>c) | d>gf>g e>dc>d | e>de>f g2b>g | e>dc>B A>GF>G | A2D2 D2(3DEF |
G>BA>c (3BdB G>B| (3cec A>c (3gbg d>c| (3BdB G>B (3AcA F>A | G2G>F G2:||


